src/svg/edit.svg

<svg xmlns="http://www.w3.org/2000/svg" width="1000" height="1000" viewBox="0 0 1000 1000"><path fill-rule="evenodd" clip-rule="evenodd" fill="#070505" d="M695.838 949.527h-392.782c-124.053 0-224.411-100.547-224.411-224.402v-449.038c0-123.881 100.358-224.401 224.411-224.401h392.782c123.891 0 224.41 100.52 224.41 224.401v449.038c0 123.855-100.519 224.402-224.41 224.402zm112.105-618.289l-259.493 255.289-112.142-112.305 305.278-300.125c-13.941-6.244-29.398-10.115-45.748-10.115h-392.782c-61.95 0-112.3 50.17-112.3 112.106v449.038c0 61.91 50.351 112.106 112.3 112.106h392.782c61.945 0 112.105-50.196 112.105-112.106v-393.888zm-504.887 393.887l24.462-140.439 87.671-26.275-3.51 52.741 56.058 1.643-29.782 84.196-134.899 28.134z"/></svg>

<?xml version="1.0" encoding="utf-8"?>
<!-- Generator: Adobe Illustrator 16.0.0, SVG Export Plug-In . SVG Version: 6.00 Build 0)  -->
<!DOCTYPE svg PUBLIC "-//W3C//DTD SVG 1.1//EN" "http://www.w3.org/Graphics/SVG/1.1/DTD/svg11.dtd">
<svg version="1.1" id="Layer_1" xmlns="http://www.w3.org/2000/svg" xmlns:xlink="http://www.w3.org/1999/xlink" x="0px" y="0px"
	 width="1000px" height="1000px" viewBox="0 0 1000 1000" enable-background="new 0 0 1000 1000" xml:space="preserve">
<path fill-rule="evenodd" clip-rule="evenodd" fill="#070505" d="M695.838,949.527H303.056
	c-124.053,0-224.411-100.547-224.411-224.402V276.087c0-123.881,100.358-224.401,224.411-224.401h392.782
	c123.891,0,224.41,100.52,224.41,224.401v449.038C920.248,848.98,819.729,949.527,695.838,949.527L695.838,949.527z
	 M807.943,331.238L548.45,586.527L436.308,474.222l305.278-300.125c-13.941-6.244-29.398-10.115-45.748-10.115H303.056
	c-61.95,0-112.3,50.17-112.3,112.106v449.038c0,61.91,50.351,112.106,112.3,112.106h392.782
	c61.945,0,112.105-50.196,112.105-112.106V331.238L807.943,331.238z M303.056,725.125l24.462-140.439l87.671-26.275l-3.51,52.741
	l56.058,1.643l-29.782,84.196L303.056,725.125L303.056,725.125z"/>
</svg>
